X: 9300
T: Dancers Delight, The
R: reel
M: 4/4
K: Ddorian
|:ADDC A,2 AA|AcBG cGBG|ADDD EDEG|ABcA BGGB|
ADDC A,2 AA|AcBG cGBG|ADDD EDEG|ABcA G4:|
K:D
|:Addd AGFG|Adde fded|Addd AGFG|AB=cA BGGG|
Addd AGFG|Addc defg|a2 ge dfed|cAAA GBAG:|

